X:1
T:Vous me changez
T:Brigard
T:Source : Livre II de 26 chansons nouvelles à 4 parties---Paris---N.du Chemin---1549. Editor : André Vierendeels (12/02/18) Notes : Original clefs : G2, C2, C3, C4 Original note values have been halved Editorial accidentals above the stave Text byCharles de Sainte-Marthe m 2 in T 1 : first "C" notated as "D" in original print
T:Vous me changez
T:©
T:©
T:©
C:Brigard
Z:©
%%score [ 1 2 [ 3 4 ] ]
L:1/8
Q:1/4=120
M:2/2
K:C
V:1 treble nm="Soprano" snm="S"
V:2 treble nm="Alto" snm="A"
V:3 treble-8 nm="Tenor 1" snm="T 1"
V:4 treble-8 nm="Tenor 2" snm="T 2"
V:1
 d4 c2 d2 | e2 e2 f2 f2 | e2 d4 c2 | d4 c2 A2 | AGAB c2 c2 | GFGA B2 c2 | BA e4 d2- | %7
w: Vous me chan-|gez pour un aul-|tre, ma- da-|me, qui ne|vous _ _ _ _ peult|ser- * * * * vir|que _ pour _|
w: Ne fai- sant|cas des maul- vais|pro- pos d'a-|me, ne des|lan- * * * * guartz|de _ _ _ _ vous|trop _ _ cac-|
"^#" d2 c2 d4 :| f4 f2 f2 | e2 d2 d2 c2 | c2 B2 c2 c2- | c2 c4 B2 | A8 | z2 A2 c3 d | %14
w: _ un temps,|vous sca- vez|bien (las) de- puis|quant i'en- tends: tous|_ mes e-|spritz|à vous fai-|
w: * que- tans,|||||||
 e2 f2 e3 d/c/ | BA f4 e2- | e2 d2 d2 cB |[M:2/4] c4 |:[M:2/2] A4 c2 d2 | B4 A2 c2 | c2 c2 B2 A2- | %21
w: re ser- * * *||* * vi- * *|ce,|et si suis|seur (tant bien|mon faict, i'en- tends)|
w: |||||||
 A2 G2 A2 A2 | A2 G2 A2 A2 | A2 A2 d2 f2 | e3 d c2 c2 | c2 A2 A2 A2 |"^#""^b" B2 d4 c2 | d8 :| %28
w: _ que vous n'a-|vez veu en vo-|stre ser- vi- ce,|que vous n'a- vez|veu en vo- stre|ser- vi- *|ce.|
w: |||||||
V:2
 A4 A2 F2 | A2 A2 A2 A2 | G2 A2 B2 A2- | A2 G2 A2 E2 | F2 F2 G4 | z2 E2 G2 A2 | G2 c2 G3 F/G/ | %7
w: Vous me chan-|gez pour un aul-|tre, ma- da- *|* * me, qui|ne vous peult,|qui ne vous|peult ser- vir que _|
w: Ne fai- sant|cas des maul- vais|pro- pos d'a- *|* * me, ne|des lan- guartz|de vous trop|cac- * * * *|
 AB A2 F4 :| A4 A2 A2 | A2 A2 A2 A2 | A2 GF G2 G2 | A2 A2 G2 G2 | E2 E2 F3 G | A3 G/F/ ED A2 | %14
w: pour _ un temps,|vous sca- vez|bien (las) de- puis|quant i'en- * * tends:|tous mes e- spritz|à vous fai- re|ser- * * * * vi-|
w: * * que- tans,|||||||
 G2 F2 c3 B/A/ | B2 c4 A2- | A2 G2 A4- |[M:2/4] A4 |:[M:2/2] F4 E2 A2- | A2 G2 A2 A2 | A2 A2 GFED | %21
w: ce, ser- vi- * *||* * ce,|_|et si suis|_ seur (tant bien|mon faict, i'en- * * *|
w: |||||||
 E3 D C2 E2 | F2 ED E2 E2 | F2 D2 D2 D2 |"^b" G2 B2 A3 G | F2 F2 F2 F2 | G2 G2 A4 | F8 :| %28
w: tends) que vous n'a-|vez _ _ veu en|vo- stre ser- vi-|ce, que vous n'a-|vez veu en vo-|stre ser- vi-|ce.|
w: |||||||
V:3
 f4 e2 d2 | c2 cB ABcd | e2 f2 e2 f2- | f2 ed e2 c2 | d2 f4 ed | e4 z2 f2 | d2 c2 d3 e | %7
w: Vous me chan-|gez pour _ un _ _ _|_ aul- tre, ma-|* da- * me, qui|ne vous _ _|peult ser-|vir que pour _|
w: Ne fai- sant|cas des _ maul- * * *|* vais pro- pos|_ d'a- * me, ne|des lan- * *|quartz de|vous trop cac- *|
 f2 e2 d4 :| d4 d2 d2 | c2 f2 f2 f2 | e2 f4 e2 | f2 f2 e2 d2- | d2 c2 d4 | c4 z2 A2 | c2 d2 edef | %15
w: _ un temps,|vous sca- vez|bien (las) de- puis|i'en- * *|tends: tous mes e-||spritz à|vous fai- * * * *|
w: * que- tans,||||||||
 g2 a2 agfe | f2 ed e2 f2 |[M:2/4] e4 |:[M:2/2] d4 c2 f2 | e3 d c2 c2 | f3 e d2 c2 | B4 A2 c2 | %22
w: re ser- * * * *|* * * * vi-|ce,|et si suis|seur _ _ (tant|bien mon faict, i'en-|tends): que vous|
w: |||||||
 A2 d4 c2 |"^b" d2 A2 B2 F2 | G2 G2 A2 AA | A2 A2 d2 f2 | e2 d2 e4 | d8 :| %28
w: n'a- vez veu|en vo- stre ser-|vi- ce, que vous n'a-|vez veu en vo-|stre ser- vi-|ce.|
w: ||||||
V:4
 D4 A2 B2 |"^b" A2 A2 FGAB | c2 F2 G2 A2 |"^b" B4 A2 A2 | d2 d2 c4 | z2 c2 G2 F2 | G2 A2 B4 | %7
w: Vous me chan-|gez pour un _ _ _|_ aul- tre, ma-|da- me, qui|ne vous peult|ser- vir que|pour _ _|
w: Ne fai- sant|cas des maul- * * *|* vais pro- pos|d'a- me, ne|de lan- guartz|de vous trop|cac- * *|
 A4 D4 :| D4 D2 D2 | A2 D2 FGAB | c2 d2 c2 c2 | F2 F2 G2 G2 | A4 z2 D2 | F3 G A3 G/F/ | E2 D2 A4 | %15
w: un temps,|vous sca- vez|bien (las) de- * * *|* puis quant i'en-|tends: tous mes e-|spritz à|vous _ fai- * *|re ser- vi-|
w: que- tans,||||||||
 G2 F2 c2 c2 | d2 B2 A4 |[M:2/4] A4 |:[M:2/2] D4 A2 D2 | E4 z2 F2 | F2 F2 G2 A2 | E4 z2 A2 | %22
w: ce, ser- vi- *||ce,|et si suis|seur (tant|bien mon faict, i'en-|tends): que|
w: |||||||
"^b" F2 B2 A4 | D8 | z8 | z2 D2 D2 D2 |"^b" G2 B2 A4 | D8 :| %28
w: n'a- * vez|veu||en vo- stre|ser- * vi-|ce.|
w: ||||||

